packages/icons/svg/16/Pencil.svg

<svg width="16" height="16" viewBox="0 0 16 16" fill="none" xmlns="http://www.w3.org/2000/svg">
<path d="M9.97401 3.19289C10.3645 2.80236 10.9977 2.80236 11.3882 3.19289L12.8024 4.6071C13.193 4.99762 13.193 5.63079 12.8024 6.02131L11.7418 7.08197L8.91335 4.25355L9.97401 3.19289Z" fill="#858585"/>
<path d="M8.20624 4.96065L3.61005 9.55685L3.05003 12.3569C2.98005 12.7068 3.28851 13.0153 3.63838 12.9453L6.43847 12.3853L11.0347 7.78908L8.20624 4.96065Z" fill="#858585"/>
</svg>

<svg width="16" height="16" fill="none" xmlns="http://www.w3.org/2000/svg" viewBox="0 0 16 16"><path d="M9.974 3.193a1 1 0 011.414 0l1.414 1.414a1 1 0 010 1.414l-1.06 1.061-2.829-2.828 1.061-1.061zM8.206 4.96L3.61 9.558l-.56 2.8a.5.5 0 00.588.588l2.8-.56 4.597-4.596-2.829-2.828z" fill="currentColor"></path></svg>
